; generated by Slic3r 1.3.1-dev (Build 6eeea77) on 2021-05-26 at 10:39:13

; external perimeters extrusion width = 0.44mm (2.86mm^3/s)
; perimeters extrusion width = 0.56mm (4.14mm^3/s)
; infill extrusion width = 0.50mm (3.66mm^3/s)
; solid infill extrusion width = 0.56mm (3.10mm^3/s)
; top infill extrusion width = 0.45mm (2.44mm^3/s)

M107
G92 E0
;D3D:START:START
T0
M104 S215 T0

G21
G90
M107
T0
G28
G29
M109 T0 S215 T0
G0 F3000
M107
T0
G92 E0
G0 X0 Y149 Z0.1 F3600
G1 Y49 E6.5 F1200
G0 Z1
G92 E0
; Filament gcode

G21 ; set units to millimeters
G90 ; use absolute coordinates
M82 ; use absolute distances for extrusion
G92 E0
G1 Z0.300 F6000.000
G1 E-2.00000 F1200.00000
G92 E0
G1 Z0.800 F6000.000
G1 X61.480 Y55.699 F6000.000
G1 Z0.300 F6000.000
G1 E2.00000 F1200.00000
G1 F1800.000
G1 X63.238 Y54.187 E2.10372
G1 X65.403 Y53.356 E2.20744
G1 X66.710 Y53.229 E2.26617
G1 X69.007 Y53.229 E2.36890
G1 X70.174 Y53.330 E2.42132
G1 X84.457 Y55.830 E3.06991
G1 X86.639 Y56.615 E3.17363
G1 X88.428 Y58.090 E3.27736
G1 X89.615 Y60.083 E3.38108
G1 X90.061 Y62.500 E3.49104
G1 X90.061 Y87.500 E4.60928
G1 X89.664 Y89.785 E4.71300
G1 X88.520 Y91.801 E4.81672
G1 X86.762 Y93.313 E4.92044
G1 X84.457 Y94.170 E5.03040
G1 X70.174 Y96.670 E5.67900
G1 X69.007 Y96.771 E5.73142
G1 X66.710 Y96.771 E5.83415
G1 X64.425 Y96.374 E5.93787
G1 X62.409 Y95.230 E6.04159
G1 X60.897 Y93.472 E6.14531
G1 X60.066 Y91.307 E6.24903
G1 X59.939 Y90.000 E6.30776
G1 X59.939 Y60.000 E7.64965
G1 X60.336 Y57.715 E7.75337
G1 X61.451 Y55.751 E7.85441
G1 X61.863 Y55.843 F6000.000
G1 F1800.000
G1 X63.606 Y54.419 E7.95511
G1 X66.710 Y53.614 E8.09853
G1 X69.007 Y53.614 E8.20127
G1 X70.108 Y53.710 E8.25070
G1 X84.391 Y56.210 E8.89929
G1 X86.505 Y56.983 E9.00000
G1 X88.220 Y58.442 E9.10070
G1 X89.322 Y60.405 E9.20140
G1 X89.676 Y62.500 E9.29643
G1 X89.676 Y87.500 E10.41468
G1 X89.279 Y89.716 E10.51538
G1 X88.137 Y91.657 E10.61608
G1 X86.394 Y93.081 E10.71678
G1 X84.391 Y93.790 E10.81182
G1 X70.108 Y96.290 E11.46042
G1 X69.007 Y96.386 E11.50985
G1 X66.710 Y96.386 E11.61258
G1 X64.494 Y95.989 E11.71328
G1 X62.553 Y94.847 E11.81398
G1 X61.129 Y93.104 E11.91469
G1 X60.324 Y90.000 E12.05810
G1 X60.324 Y60.000 E13.40000
G1 X60.721 Y57.784 E13.50070
G1 X61.832 Y55.895 E13.59872
G1 E11.59872 F1200.00000
G92 E0
G1 Z0.800 F6000.000
G1 X82.269 Y86.074 F6000.000
G1 Z0.300 F6000.000
G1 E2.00000 F1200.00000
G1 F1800.000
G1 X81.864 Y86.479 E2.02558
G1 X81.355 Y86.738 E2.05116
G1 X80.790 Y86.828 E2.07674
G1 X80.225 Y86.738 E2.10232
G1 X79.716 Y86.479 E2.12790
G1 X79.311 Y86.074 E2.15348
G1 X79.052 Y85.565 E2.17906
G1 X78.962 Y85.000 E2.20463
G1 X79.052 Y84.435 E2.23021
G1 X79.311 Y83.926 E2.25579
G1 X79.716 Y83.521 E2.28137
G1 X80.225 Y83.262 E2.30695
G1 X80.790 Y83.172 E2.33253
G1 X81.355 Y83.262 E2.35811
G1 X81.864 Y83.521 E2.38369
G1 X82.269 Y83.926 E2.40927
G1 X82.528 Y84.435 E2.43485
G1 X82.618 Y85.000 E2.46043
G1 X82.528 Y85.565 E2.48601
G1 X82.296 Y86.021 E2.50890
G1 X82.431 Y86.440 F6000.000
G1 E0.50890 F1200.00000
G92 E0
G1 Z0.800 F6000.000
G1 X82.679 Y83.791 F6000.000
G1 Z0.300 F6000.000
G1 E2.00000 F1200.00000
G1 F1800.000
G1 X81.999 Y83.111 E2.04304
G1 X82.679 Y83.111 E2.07347
G1 X82.679 Y83.731 E2.10121
G1 E0.10121 F1200.00000
G92 E0
G1 Z0.800 F6000.000
G1 X82.679 Y86.209 F6000.000
G1 Z0.300 F6000.000
G1 E2.00000 F1200.00000
G1 F1800.000
G1 X82.679 Y86.889 E2.03043
G1 X81.999 Y86.889 E2.06086
G1 X82.637 Y86.251 E2.10122
G1 E0.10122 F1200.00000
G92 E0
G1 Z0.800 F6000.000
G1 X82.679 Y66.889 F6000.000
G1 Z0.300 F6000.000
G1 E2.00000 F1200.00000
G1 F1800.000
G1 X81.999 Y66.889 E2.03043
G1 X82.679 Y66.209 E2.07347
G1 X82.679 Y66.829 E2.10121
G1 E0.10121 F1200.00000
G92 E0
G1 Z0.800 F6000.000
G1 X82.679 Y63.791 F6000.000
G1 Z0.300 F6000.000
G1 E2.00000 F1200.00000
G1 F1800.000
G1 X81.999 Y63.111 E2.04304
G1 X82.679 Y63.111 E2.07347
G1 X82.679 Y63.731 E2.10121
G1 X82.269 Y63.926 F6000.000
G1 F1800.000
G1 X82.528 Y64.435 E2.12679
G1 X82.618 Y65.000 E2.15237
G1 X82.528 Y65.565 E2.17795
G1 X82.269 Y66.074 E2.20353
G1 X81.864 Y66.479 E2.22911
G1 X81.355 Y66.738 E2.25469
G1 X80.790 Y66.828 E2.28027
G1 X80.225 Y66.738 E2.30585
G1 X79.716 Y66.479 E2.33143
G1 X79.311 Y66.074 E2.35701
G1 X79.052 Y65.565 E2.38259
G1 X78.962 Y65.000 E2.40817
G1 X79.052 Y64.435 E2.43375
G1 X79.311 Y63.926 E2.45933
G1 X79.716 Y63.521 E2.48490
G1 X80.225 Y63.262 E2.51048
G1 X80.790 Y63.172 E2.53606
G1 X81.355 Y63.262 E2.56164
G1 X81.864 Y63.521 E2.58722
G1 X82.226 Y63.883 E2.61012
G1 X82.667 Y63.884 F6000.000
G1 E0.61012 F1200.00000
G92 E0
G1 Z0.800 F6000.000
G1 X78.664 Y83.496 F6000.000
G1 Z0.300 F6000.000
G1 E2.00000 F1200.00000
G1 F1800.000
G1 X78.309 Y84.194 E2.03502
G1 X78.181 Y85.000 E2.07153
G1 X78.309 Y85.806 E2.10804
G1 X78.664 Y86.504 E2.14306
G1 X69.856 Y86.504 E2.53704
G1 X70.834 Y83.496 E2.67849
G1 X78.604 Y83.496 E3.02607
G1 E1.02607 F1200.00000
G92 E0
G1 Z0.800 F6000.000
G1 X78.664 Y66.504 F6000.000
G1 Z0.300 F6000.000
G1 E2.00000 F1200.00000
G1 F1800.000
G1 X70.834 Y66.504 E2.35027
G1 X69.856 Y63.496 E2.49172
G1 X78.664 Y63.496 E2.88570
G1 X78.309 Y64.194 E2.92072
G1 X78.181 Y65.000 E2.95723
G1 X78.309 Y65.806 E2.99373
G1 X78.637 Y66.450 E3.02607
G1 E1.02607 F1200.00000
G92 E0
G1 Z0.800 F6000.000
G1 X71.361 Y66.889 F6000.000
G1 Z0.300 F6000.000
G1 E2.00000 F1200.00000
G1 F1800.000
G1 X72.045 Y68.994 E2.09900
G1 X72.676 Y75.000 E2.36911
G1 X72.045 Y81.006 E2.63923
G1 X71.361 Y83.111 E2.73822
G1 X79.581 Y83.111 E3.10591
G1 X78.995 Y83.696 E3.14294
G1 X78.680 Y84.315 E3.17399
G1 X78.572 Y85.000 E3.20503
G1 X78.680 Y85.685 E3.23607
G1 X78.995 Y86.304 E3.26712
G1 X79.581 Y86.889 E3.30416
G1 X70.098 Y86.889 E3.72834
G1 X68.654 Y89.389 E3.85747
G1 X67.768 Y89.389 E3.89712
G1 X69.473 Y86.435 E4.04972
G1 X71.290 Y80.845 E4.31261
G1 X71.904 Y75.000 E4.57551
G1 X71.290 Y69.155 E4.83841
G1 X69.473 Y63.565 E5.10130
G1 X67.768 Y60.611 E5.25390
G1 X68.654 Y60.611 E5.29355
G1 X70.098 Y63.111 E5.42268
G1 X79.581 Y63.111 E5.84686
G1 X78.995 Y63.696 E5.88390
G1 X78.680 Y64.315 E5.91495
G1 X78.572 Y65.000 E5.94599
G1 X78.680 Y65.685 E5.97703
G1 X78.995 Y66.304 E6.00808
G1 X79.581 Y66.889 E6.04511
G1 X71.421 Y66.889 E6.41011
G1 X71.892 Y67.275 F6000.000
G1 F1800.000
G1 X72.424 Y68.914 E6.48718
G1 X73.064 Y75.000 E6.76092
G1 X72.424 Y81.086 E7.03466
G1 X71.892 Y82.725 E7.11173
G1 X83.065 Y82.725 E7.61152
G1 X83.065 Y87.275 E7.81504
G1 X70.320 Y87.275 E8.38511
G1 X68.877 Y89.775 E8.51423
G1 X67.100 Y89.775 E8.59372
G1 X69.119 Y86.277 E8.77438
G1 X70.910 Y80.765 E9.03365
G1 X71.516 Y75.000 E9.29292
G1 X70.910 Y69.235 E9.55219
G1 X69.119 Y63.723 E9.81146
G1 X67.100 Y60.225 E9.99211
G1 X68.877 Y60.225 E10.07160
G1 X70.320 Y62.725 E10.20073
G1 X83.065 Y62.725 E10.77080
G1 X83.065 Y67.275 E10.97432
G1 X71.952 Y67.275 E11.47142
G1 X71.514 Y67.408 F6000.000
G1 X70.895 Y66.697 F6000.000
G1 F1800.000
G1 X71.667 Y69.075 E11.56359
G1 X72.289 Y75.000 E11.78322
G1 X71.667 Y80.925 E12.00286
G1 X70.895 Y83.303 E12.09503
G1 X71.428 Y83.568 F6000.000
G1 F1800.000
G1 X70.800 Y84.196 E12.13668
G1 X70.525 Y85.043 E12.17853
G1 X72.000 Y83.568 E12.27646
G1 X72.572 Y83.568 E12.30333
G1 X70.249 Y85.891 E12.45755
G1 X70.074 Y86.432 E12.48423
G1 X70.281 Y86.432 E12.49397
G1 X73.145 Y83.568 E12.68407
G1 X73.717 Y83.568 E12.71093
G1 X70.853 Y86.432 E12.90104
G1 X71.426 Y86.432 E12.92790
G1 X74.289 Y83.568 E13.11800
G1 X74.862 Y83.568 E13.14487
G1 X71.998 Y86.432 E13.33497
G1 X72.570 Y86.432 E13.36184
G1 X75.434 Y83.568 E13.55194
G1 X76.006 Y83.568 E13.57881
G1 X73.143 Y86.432 E13.76891
G1 X73.715 Y86.432 E13.79578
G1 X76.579 Y83.568 E13.98588
G1 X77.151 Y83.568 E14.01275
G1 X74.287 Y86.432 E14.20285
G1 X74.860 Y86.432 E14.22972
G1 X77.723 Y83.568 E14.41982
G1 X78.296 Y83.568 E14.44668
G1 X75.432 Y86.432 E14.63678
G1 X76.004 Y86.432 E14.66365
G1 X78.171 Y84.265 E14.80750
G1 X78.104 Y84.686 E14.82753
G1 X78.134 Y84.874 E14.83646
G1 X76.577 Y86.432 E14.93985
G1 X77.149 Y86.432 E14.96672
G1 X78.212 Y85.368 E15.03731
G1 X78.251 Y85.613 E15.04895
G1 X78.349 Y85.804 E15.05903
G1 X77.721 Y86.432 E15.10067
G1 X78.923 Y86.536 F6000.000
G1 F1800.000
G1 X79.039 Y86.697 E15.10126
G1 X79.719 Y86.722 F6000.000
G1 F1800.000
G1 X79.841 Y86.811 E15.10185
G1 F1800.000
G1 X80.085 Y86.989 E15.10546
G1 X80.152 Y87.003 E15.10628
G1 F1800.000
G1 X80.785 Y87.052 E15.10959
G1 X81.111 Y87.028 E15.11130
G1 F1800.000
G1 X81.495 Y86.989 E15.11679
G1 X81.617 Y86.900 E15.11895
G1 F1800.000
G1 X81.861 Y86.722 E15.12014
G1 X82.512 Y86.071 F6000.000
G1 F1800.000
G1 X82.690 Y85.827 E15.12133
G1 F1800.000
G1 X82.779 Y85.705 E15.12349
G1 X82.817 Y85.321 E15.12898
G1 F1800.000
G1 X82.842 Y84.995 E15.13069
G1 X82.793 Y84.362 E15.13400
G1 F1800.000
G1 X82.779 Y84.295 E15.13482
G1 X82.601 Y84.051 E15.13843
G1 F1800.000
G1 X82.512 Y83.929 E15.13902
G1 X81.861 Y83.278 F6000.000
G1 F1800.000
G1 X81.617 Y83.100 E15.14022
G1 F1800.000
G1 X81.495 Y83.011 E15.14237
G1 X81.111 Y82.972 E15.14787
G1 F1800.000
G1 X80.785 Y82.948 E15.14957
G1 X80.152 Y82.997 E15.15288
G1 F1800.000
G1 X80.085 Y83.011 E15.15370
G1 X79.841 Y83.189 E15.15731
G1 F1800.000
G1 X79.719 Y83.278 E15.15790
G1 X79.039 Y83.303 F6000.000
G1 F1800.000
G1 X78.923 Y83.464 E15.15849
G1 E13.15849 F1200.00000
G92 E0
G1 Z0.800 F6000.000
G1 X69.766 Y86.697 F6000.000
G1 Z0.300 F6000.000
G1 E2.00000 F1200.00000
G1 F1800.000
G1 X68.322 Y89.197 E2.10642
G1 E0.10642 F1200.00000
G92 E0
G1 Z0.800 F6000.000
G1 X77.721 Y66.432 F6000.000
G1 Z0.300 F6000.000
G1 E2.00000 F1200.00000
G1 F1800.000
G1 X78.349 Y65.804 E2.03995
G1 X78.251 Y65.613 E2.04962
G1 X78.216 Y65.388 E2.05987
G1 X77.172 Y66.432 E2.12632
G1 X76.623 Y66.432 E2.15105
G1 X78.141 Y64.914 E2.24770
G1 X78.104 Y64.686 E2.25809
G1 X78.158 Y64.348 E2.27354
G1 X76.074 Y66.432 E2.40627
G1 X75.525 Y66.432 E2.43100
G1 X78.308 Y63.649 E2.60823
G1 X78.349 Y63.568 E2.61233
G1 X77.839 Y63.568 E2.63527
G1 X74.976 Y66.432 E2.81765
G1 X74.427 Y66.432 E2.84239
G1 X77.290 Y63.568 E3.02477
G1 X76.741 Y63.568 E3.04950
G1 X73.878 Y66.432 E3.23189
G1 X73.329 Y66.432 E3.25662
G1 X76.192 Y63.568 E3.43901
G1 X75.643 Y63.568 E3.46374
G1 X72.779 Y66.432 E3.64613
G1 X72.230 Y66.432 E3.67086
G1 X75.094 Y63.568 E3.85325
G1 X74.545 Y63.568 E3.87798
G1 X71.681 Y66.432 E4.06037
G1 X71.132 Y66.432 E4.08510
G1 X73.996 Y63.568 E4.26748
G1 X73.446 Y63.568 E4.29222
G1 X70.747 Y66.268 E4.46416
G1 X70.612 Y65.853 E4.48379
G1 X72.897 Y63.568 E4.62933
G1 X72.348 Y63.568 E4.65406
G1 X70.478 Y65.439 E4.77321
G1 X70.343 Y65.024 E4.79284
G1 X71.799 Y63.568 E4.88559
G1 X71.250 Y63.568 E4.91032
G1 X70.208 Y64.610 E4.97667
G1 X70.074 Y64.196 E4.99629
G1 X70.701 Y63.568 E5.03625
G1 X69.766 Y63.303 F6000.000
G1 F1800.000
G1 X68.322 Y60.803 E5.14266
G1 E3.14266 F1200.00000
G92 E0
G1 Z0.800 F6000.000
G1 X78.923 Y63.464 F6000.000
G1 Z0.300 F6000.000
G1 E2.00000 F1200.00000
G1 F1800.000
G1 X79.039 Y63.303 E2.00059
G1 X79.719 Y63.278 F6000.000
G1 F1800.000
G1 X79.841 Y63.189 E2.00119
G1 F1800.000
G1 X80.085 Y63.011 E2.00479
G1 X80.152 Y62.997 E2.00561
G1 F1800.000
G1 X80.785 Y62.948 E2.00892
G1 X81.111 Y62.972 E2.01063
G1 F1800.000
G1 X81.495 Y63.011 E2.01613
G1 X81.617 Y63.100 E2.01828
G1 F1800.000
G1 X81.861 Y63.278 E2.01947
G1 X82.512 Y63.929 F6000.000
G1 F1800.000
G1 X82.601 Y64.051 E2.02007
G1 F1800.000
G1 X82.779 Y64.295 E2.02367
G1 X82.793 Y64.362 E2.02449
G1 F1800.000
G1 X82.842 Y64.995 E2.02781
G1 X82.817 Y65.321 E2.02951
G1 F1800.000
G1 X82.779 Y65.705 E2.03501
G1 X82.690 Y65.827 E2.03716
G1 F1800.000
G1 X82.512 Y66.071 E2.03835
G1 X81.861 Y66.722 F6000.000
G1 F1800.000
G1 X81.617 Y66.900 E2.03955
G1 F1800.000
G1 X81.495 Y66.989 E2.04170
G1 X81.111 Y67.028 E2.04720
G1 F1800.000
G1 X80.785 Y67.052 E2.04890
G1 X80.152 Y67.003 E2.05221
G1 F1800.000
G1 X80.085 Y66.989 E2.05303
G1 X79.841 Y66.811 E2.05664
G1 F1800.000
G1 X79.719 Y66.722 E2.05724
G1 X79.039 Y66.697 F6000.000
G1 F1800.000
G1 X78.923 Y66.536 E2.05783
G1 Z0.500 F6000.000
G1 E0.05783 F1200.00000
G92 E0
G1 Z1.000 F6000.000
G1 X80.227 Y83.266 F6000.000
G1 Z0.500 F6000.000
G1 E2.00000 F1200.00000
G1 F1800.000
G1 X80.790 Y83.177 E2.01751
G1 X81.353 Y83.266 E2.03502
G1 X81.861 Y83.525 E2.05253
G1 X82.265 Y83.929 E2.07004
G1 X82.524 Y84.437 E2.08756
G1 X82.613 Y85.000 E2.10507
G1 X82.524 Y85.563 E2.12258
G1 X82.265 Y86.071 E2.14009
G1 X81.861 Y86.475 E2.15760
G1 X81.353 Y86.734 E2.17511
G1 X80.790 Y86.823 E2.19262
G1 X80.227 Y86.734 E2.21013
G1 X79.719 Y86.475 E2.22764
G1 X79.315 Y86.071 E2.24515
G1 X79.056 Y85.563 E2.26267
G1 X78.967 Y85.000 E2.28018
G1 X79.056 Y84.437 E2.29769
G1 X79.315 Y83.929 E2.31520
G1 X79.719 Y83.525 E2.33271
G1 X80.173 Y83.294 E2.34838
G1 X80.310 Y82.875 F6000.000
G1 E0.34838 F1200.00000
G92 E0
G1 Z1.000 F6000.000
G1 X80.790 Y66.823 F6000.000
G1 Z0.500 F6000.000
G1 E2.00000 F1200.00000
G1 F1800.000
G1 X80.227 Y66.734 E2.01751
G1 X79.719 Y66.475 E2.03502
G1 X79.315 Y66.071 E2.05253
G1 X79.056 Y65.563 E2.07004
G1 X78.967 Y65.000 E2.08756
G1 X79.056 Y64.437 E2.10507
G1 X79.315 Y63.929 E2.12258
G1 X79.719 Y63.525 E2.14009
G1 X80.227 Y63.266 E2.15760
G1 X80.790 Y63.177 E2.17511
G1 X81.353 Y63.266 E2.19262
G1 X81.861 Y63.525 E2.21013
G1 X82.265 Y63.929 E2.22764
G1 X82.524 Y64.437 E2.24515
G1 X82.613 Y65.000 E2.26267
G1 X82.524 Y65.563 E2.28018
G1 X82.265 Y66.071 E2.29769
G1 X81.861 Y66.475 E2.31520
G1 X81.353 Y66.734 E2.33271
G1 X80.849 Y66.813 E2.34838
G1 X80.590 Y67.169 F6000.000
G1 E0.34838 F1200.00000
G92 E0
G1 Z1.000 F6000.000
G1 X78.341 Y83.694 F6000.000
G1 Z0.500 F6000.000
G1 E2.00000 F1200.00000
G1 F1800.000
G1 X78.118 Y84.132 E2.01965
G1 X77.981 Y85.000 E2.05479
G1 X78.118 Y85.868 E2.08993
G1 X78.341 Y86.306 E2.10958
G1 X70.129 Y86.306 E2.43796
G1 X70.977 Y83.694 E2.54777
G1 X78.281 Y83.694 E2.83982
G1 E0.83982 F1200.00000
G92 E0
G1 Z1.000 F6000.000
G1 X78.341 Y66.306 F6000.000
G1 Z0.500 F6000.000
G1 E2.00000 F1200.00000
G1 F1800.000
G1 X70.977 Y66.306 E2.29445
G1 X70.129 Y63.694 E2.40426
G1 X78.341 Y63.694 E2.73264
G1 X78.118 Y64.132 E2.75229
G1 X77.981 Y65.000 E2.78743
G1 X78.118 Y65.868 E2.82257
G1 X78.314 Y66.252 E2.83982
G1 E0.83982 F1200.00000
G92 E0
G1 Z1.000 F6000.000
G1 X71.269 Y66.823 F6000.000
G1 Z0.500 F6000.000
G1 E2.00000 F1200.00000
G1 F2400.000
G1 X71.979 Y69.008 E2.09187
G1 X72.609 Y75.000 E2.33278
G1 X71.979 Y80.992 E2.57369
G1 X71.269 Y83.177 E2.66556
G1 X79.420 Y83.177 E2.99149
G1 X78.941 Y83.657 E3.01861
G1 X78.616 Y84.294 E3.04720
G1 X78.504 Y85.000 E3.07579
G1 X78.616 Y85.706 E3.10439
G1 X78.941 Y86.343 E3.13298
G1 X79.420 Y86.823 E3.16009
G1 X70.059 Y86.823 E3.53441
G1 X68.616 Y89.323 E3.64984
G1 X67.883 Y89.323 E3.67915
G1 X69.534 Y86.462 E3.81124
G1 X71.355 Y80.859 E4.04681
G1 X71.971 Y75.000 E4.28238
G1 X71.355 Y69.141 E4.51795
G1 X69.534 Y63.538 E4.75352
G1 X67.883 Y60.677 E4.88561
G1 X68.616 Y60.677 E4.91492
G1 X70.059 Y63.177 E5.03035
G1 X79.420 Y63.177 E5.40467
G1 X78.941 Y63.657 E5.43178
G1 X78.616 Y64.294 E5.46037
G1 X78.504 Y65.000 E5.48897
G1 X78.616 Y65.706 E5.51756
G1 X78.941 Y66.343 E5.54615
G1 X79.420 Y66.823 E5.57327
G1 X71.329 Y66.823 E5.89680
G1 X71.898 Y67.280 F6000.000
G1 F2160.000
G1 X72.429 Y68.913 E5.94951
G1 X73.069 Y75.000 E6.13746
G1 X72.429 Y81.087 E6.32541
G1 X71.898 Y82.720 E6.37812
G1 X83.070 Y82.720 E6.72115
G1 X83.070 Y87.280 E6.86117
G1 X70.323 Y87.280 E7.25258
G1 X68.880 Y89.780 E7.34122
G1 X67.091 Y89.780 E7.39614
G1 X69.115 Y86.275 E7.52041
G1 X70.905 Y80.764 E7.69836
G1 X71.511 Y75.000 E7.87631
G1 X70.905 Y69.236 E8.05426
G1 X69.115 Y63.725 E8.23221
G1 X67.091 Y60.220 E8.35648
G1 X68.880 Y60.220 E8.41140
G1 X70.323 Y62.720 E8.50004
G1 X83.070 Y62.720 E8.89145
G1 X83.070 Y67.280 E9.03147
G1 X71.958 Y67.280 E9.37266
G1 X71.521 Y67.413 F6000.000
G1 X70.852 Y66.564 F6000.000
G1 F1200.000
G1 X71.667 Y69.075 E9.38794
G1 X72.290 Y75.000 E9.42245
G1 X71.667 Y80.925 E9.45695
G1 X70.852 Y83.436 E9.47224
G1 E7.47224 F1200.00000
G92 E0
G1 Z1.000 F6000.000
G1 X71.261 Y86.209 F6000.000
G1 Z0.500 F6000.000
G1 E2.00000 F1200.00000
G1 F1800.000
G1 X70.420 Y85.368 E2.04918
G1 X70.606 Y84.797 E2.07400
G1 X72.017 Y86.209 E2.15657
G1 X72.774 Y86.209 E2.18785
G1 X70.791 Y84.227 E2.30380
