; generated by Slic3r 1.3.1-dev (Build 6eeea77) on 2021-05-26 at 10:08:30

; external perimeters extrusion width = 0.44mm (2.86mm^3/s)
; perimeters extrusion width = 0.56mm (4.14mm^3/s)
; infill extrusion width = 0.50mm (3.66mm^3/s)
; solid infill extrusion width = 0.56mm (3.10mm^3/s)
; top infill extrusion width = 0.45mm (2.44mm^3/s)

M107
G92 E0
;D3D:START:START
T0
M104 S215 T0

G21
G90
M107
T0
G28
G29
M109 T0 S215 T0
G0 F3000
M107
T0
G92 E0
G0 X0 Y149 Z0.1 F3600
G1 Y49 E6.5 F1200
G0 Z1
G92 E0
; Filament gcode

G21 ; set units to millimeters
G90 ; use absolute coordinates
M82 ; use absolute distances for extrusion
G92 E0
G1 Z0.300 F6000.000
G1 E-2.00000 F1200.00000
G92 E0
G1 Z0.800 F6000.000
G1 X62.560 Y56.369 F6000.000
G1 Z0.300 F6000.000
G1 E2.00000 F1200.00000
G1 F1800.000
G1 X64.412 Y54.974 E2.10372
G1 X67.500 Y54.229 E2.24580
G1 X82.500 Y54.229 E2.91674
G1 X84.785 Y54.626 E3.02046
G1 X87.440 Y56.369 E3.16254
G1 X94.940 Y64.369 E3.65304
G1 X96.213 Y66.307 E3.75676
G1 X96.771 Y69.000 E3.87978
G1 X96.771 Y89.000 E4.77437
G1 X96.374 Y91.285 E4.87809
G1 X95.230 Y93.301 E4.98181
G1 X93.472 Y94.813 E5.08554
G1 X91.307 Y95.644 E5.18926
G1 X90.000 Y95.771 E5.24798
G1 X60.000 Y95.771 E6.58988
G1 X57.715 Y95.374 E6.69360
G1 X55.699 Y94.230 E6.79732
G1 X54.187 Y92.472 E6.90104
G1 X53.356 Y90.307 E7.00476
G1 X53.229 Y89.000 E7.06349
G1 X53.229 Y69.000 E7.95808
G1 X53.626 Y66.715 E8.06180
G1 X55.060 Y64.369 E8.18482
G1 X62.519 Y56.413 E8.67264
G1 X62.841 Y56.633 F6000.000
G1 F1800.000
G1 X64.647 Y55.287 E8.77334
G1 X67.500 Y54.614 E8.90447
G1 X82.500 Y54.614 E9.57542
G1 X84.716 Y55.011 E9.67612
G1 X87.159 Y56.633 E9.80725
G1 X94.659 Y64.633 E10.29775
G1 X95.885 Y66.521 E10.39845
G1 X96.386 Y69.000 E10.51159
G1 X96.386 Y89.000 E11.40619
G1 X95.989 Y91.216 E11.50689
G1 X94.847 Y93.157 E11.60759
G1 X93.104 Y94.581 E11.70829
G1 X90.000 Y95.386 E11.85171
G1 X60.000 Y95.386 E13.19361
G1 X57.784 Y94.989 E13.29431
G1 X55.843 Y93.847 E13.39501
G1 X54.419 Y92.104 E13.49571
G1 X53.614 Y89.000 E13.63913
G1 X53.614 Y69.000 E14.53373
G1 X54.011 Y66.784 E14.63443
G1 X55.341 Y64.633 E14.74757
G1 X62.800 Y56.676 E15.23538
G1 E13.23538 F1200.00000
G92 E0
G1 Z0.800 F6000.000
G1 X81.504 Y69.996 F6000.000
G1 Z0.300 F6000.000
G1 E2.00000 F1200.00000
G1 F1800.000
G1 X89.004 Y69.996 E2.33547
G1 X89.004 Y88.004 E3.14095
G1 X60.996 Y88.004 E4.39372
G1 X60.996 Y69.996 E5.19919
G1 X68.496 Y69.996 E5.53467
G1 X68.496 Y61.996 E5.89250
G1 X81.504 Y61.996 E6.47433
G1 X81.504 Y69.936 E6.82948
G1 X81.889 Y69.611 F6000.000
G1 F1800.000
G1 X89.389 Y69.611 E7.16496
G1 X89.389 Y88.389 E8.00493
G1 X60.611 Y88.389 E9.29220
G1 X60.611 Y69.611 E10.13217
G1 X68.111 Y69.611 E10.46764
G1 X68.111 Y61.611 E10.82548
G1 X81.889 Y61.611 E11.44180
G1 X81.889 Y69.551 E11.79696
G1 X82.275 Y69.225 F6000.000
G1 F1800.000
G1 X89.775 Y69.225 E12.13243
G1 X89.775 Y88.775 E13.00690
G1 X60.225 Y88.775 E14.32866
G1 X60.225 Y69.225 E15.20313
G1 X67.725 Y69.225 E15.53861
G1 X67.725 Y61.225 E15.89644
G1 X82.275 Y61.225 E16.54726
G1 X82.275 Y69.165 E16.90242
G1 X82.414 Y69.600 F6000.000
G1 E14.90242 F1200.00000
G92 E0
G1 Z0.800 F6000.000
G1 X68.568 Y70.374 F6000.000
G1 Z0.300 F6000.000
G1 E2.00000 F1200.00000
G1 F1800.000
G1 X76.874 Y62.068 E2.52837
G1 X76.325 Y62.068 E2.55304
G1 X68.568 Y69.825 E3.04652
G1 X68.568 Y69.277 E3.07119
G1 X75.777 Y62.068 E3.52978
G1 X75.228 Y62.068 E3.55445
G1 X68.568 Y68.728 E3.97815
G1 X68.568 Y68.180 E4.00282
G1 X74.680 Y62.068 E4.39162
G1 X74.132 Y62.068 E4.41630
G1 X68.568 Y67.632 E4.77021
G1 X68.568 Y67.083 E4.79489
G1 X73.583 Y62.068 E5.11391
G1 X73.035 Y62.068 E5.13858
G1 X68.568 Y66.535 E5.42272
G1 X68.568 Y65.986 E5.44739
G1 X72.486 Y62.068 E5.69664
G1 X71.938 Y62.068 E5.72131
G1 X68.568 Y65.438 E5.93567
G1 X68.568 Y64.889 E5.96034
G1 X71.389 Y62.068 E6.13981
G1 X70.841 Y62.068 E6.16448
G1 X68.568 Y64.341 E6.30906
G1 X68.568 Y63.792 E6.33373
G1 X70.292 Y62.068 E6.44342
G1 X69.744 Y62.068 E6.46809
G1 X68.568 Y63.244 E6.54288
G1 X68.568 Y62.696 E6.56755
G1 X69.196 Y62.068 E6.60746
G1 E4.60746 F1200.00000
G92 E0
G1 Z0.800 F6000.000
G1 X61.117 Y70.695 F6000.000
G1 Z0.300 F6000.000
G1 E2.00000 F1200.00000
G1 F1800.000
G1 X61.068 Y70.695 E2.00219
G1 X61.068 Y70.744 E2.00437
G1 X61.744 Y70.068 E2.04736
G1 X62.292 Y70.068 E2.07203
G1 X61.068 Y71.292 E2.14991
G1 X61.068 Y71.841 E2.17458
G1 X62.841 Y70.068 E2.28735
G1 X63.389 Y70.068 E2.31202
G1 X61.068 Y72.389 E2.45968
G1 X61.068 Y72.938 E2.48435
G1 X63.938 Y70.068 E2.66690
G1 X64.486 Y70.068 E2.69157
G1 X61.068 Y73.486 E2.90901
G1 X61.068 Y74.035 E2.93368
G1 X65.035 Y70.068 E3.18601
G1 X65.583 Y70.068 E3.21068
G1 X61.068 Y74.583 E3.49790
G1 X61.068 Y75.132 E3.52258
G1 X66.132 Y70.068 E3.84468
G1 X66.680 Y70.068 E3.86936
G1 X61.068 Y75.680 E4.22636
G1 X61.068 Y76.228 E4.25103
G1 X67.228 Y70.068 E4.64292
G1 X67.777 Y70.068 E4.66759
G1 X61.068 Y76.777 E5.09437
G1 X61.068 Y77.325 E5.11904
G1 X68.325 Y70.068 E5.58071
G1 X68.874 Y70.068 E5.60538
G1 X61.068 Y77.874 E6.10194
G1 X61.068 Y78.422 E6.12661
G1 X77.422 Y62.068 E7.16699
G1 X77.971 Y62.068 E7.19166
G1 X61.068 Y78.971 E8.26694
G1 X61.068 Y79.519 E8.29161
G1 X78.519 Y62.068 E9.40177
G1 X79.068 Y62.068 E9.42644
G1 X61.068 Y80.068 E10.57149
G1 X61.068 Y80.616 E10.59616
G1 X79.616 Y62.068 E11.77611
G1 X80.164 Y62.068 E11.80078
G1 X61.068 Y81.164 E13.01561
G1 X61.068 Y81.713 E13.04028
G1 X80.713 Y62.068 E14.29000
G1 X81.261 Y62.068 E14.31467
G1 X61.068 Y82.261 E15.59929
G1 X61.068 Y82.810 E15.62396
G1 X81.432 Y62.446 E16.91941
G1 X81.432 Y62.995 E16.94408
G1 X61.068 Y83.358 E18.23954
G1 X61.068 Y83.907 E18.26421
G1 X81.432 Y63.543 E19.55966
G1 X81.432 Y64.092 E19.58433
G1 X61.068 Y84.455 E20.87978
G1 X61.068 Y85.004 E20.90446
G1 X81.432 Y64.640 E22.19991
G1 X81.432 Y65.189 E22.22458
G1 X61.068 Y85.552 E23.52003
G1 X61.068 Y86.100 E23.54470
G1 X81.432 Y65.737 E24.84016
G1 X81.432 Y66.285 E24.86483
G1 X61.068 Y86.649 E26.16028
G1 X61.068 Y87.197 E26.18495
G1 X81.432 Y66.834 E27.48041
G1 X81.432 Y67.382 E27.50508
G1 X61.068 Y87.746 E28.80053
G1 X61.068 Y87.932 E28.80890
G1 X61.431 Y87.932 E28.82520
G1 X81.432 Y67.931 E30.09760
G1 X81.432 Y68.479 E30.12227
G1 X61.979 Y87.932 E31.35977
G1 X62.528 Y87.932 E31.38445
G1 X81.432 Y69.028 E32.58706
G1 X81.432 Y69.576 E32.61173
G1 X63.076 Y87.932 E33.77946
G1 X63.624 Y87.932 E33.80413
G1 X81.488 Y70.068 E34.94054
G1 X82.036 Y70.068 E34.96521
G1 X64.173 Y87.932 E36.10162
G1 X64.721 Y87.932 E36.12629
G1 X82.585 Y70.068 E37.26271
G1 X83.133 Y70.068 E37.28738
G1 X65.270 Y87.932 E38.42379
G1 X65.818 Y87.932 E38.44846
G1 X83.682 Y70.068 E39.58487
G1 X84.230 Y70.068 E39.60955
G1 X66.367 Y87.932 E40.74596
G1 X66.915 Y87.932 E40.77063
G1 X84.779 Y70.068 E41.90704
G1 X85.327 Y70.068 E41.93171
G1 X67.464 Y87.932 E43.06813
G1 X68.012 Y87.932 E43.09280
G1 X85.876 Y70.068 E44.22921
G1 X86.424 Y70.068 E44.25388
G1 X68.560 Y87.932 E45.39029
G1 X69.109 Y87.932 E45.41496
G1 X86.972 Y70.068 E46.55138
G1 X87.521 Y70.068 E46.57605
G1 X69.657 Y87.932 E47.71246
G1 X70.206 Y87.932 E47.73713
G1 X88.069 Y70.068 E48.87354
G1 X88.618 Y70.068 E48.89822
G1 X70.754 Y87.932 E50.03463
G1 X71.303 Y87.932 E50.05930
G1 X88.932 Y70.303 E51.18080
G1 X88.932 Y70.851 E51.20547
G1 X71.851 Y87.932 E52.29208
G1 X72.400 Y87.932 E52.31675
G1 X88.932 Y71.400 E53.36846
G1 X88.932 Y71.948 E53.39314
G1 X72.948 Y87.932 E54.40996
G1 X73.496 Y87.932 E54.43463
G1 X88.932 Y72.496 E55.41657
G1 X88.932 Y73.045 E55.44124
G1 X74.045 Y87.932 E56.38829
G1 X74.593 Y87.932 E56.41296
G1 X88.932 Y73.593 E57.32512
G1 X88.932 Y74.142 E57.34979
G1 X75.142 Y87.932 E58.22706
G1 X75.690 Y87.932 E58.25173
G1 X88.932 Y74.690 E59.09411
G1 X88.932 Y75.239 E59.11878
G1 X76.239 Y87.932 E59.92627
G1 X76.787 Y87.932 E59.95094
G1 X88.932 Y75.787 E60.72353
G1 X88.932 Y76.336 E60.74820
G1 X77.336 Y87.932 E61.48591
G1 X77.884 Y87.932 E61.51058
G1 X88.932 Y76.884 E62.21340
G1 X88.932 Y77.432 E62.23807
G1 X78.432 Y87.932 E62.90600
G1 X78.981 Y87.932 E62.93067
G1 X88.932 Y77.981 E63.56371
G1 X88.932 Y78.529 E63.58838
G1 X79.529 Y87.932 E64.18652
G1 X80.078 Y87.932 E64.21120
G1 X88.932 Y79.078 E64.77445
G1 X88.932 Y79.626 E64.79912
G1 X80.626 Y87.932 E65.32749
G1 X81.175 Y87.932 E65.35216
G1 X88.932 Y80.175 E65.84564
G1 X88.932 Y80.723 E65.87031
G1 X81.723 Y87.932 E66.32890
G1 X82.272 Y87.932 E66.35357
G1 X88.932 Y81.272 E66.77726
G1 X88.932 Y81.820 E66.80193
G1 X82.820 Y87.932 E67.19074
G1 X83.368 Y87.932 E67.21541
G1 X88.932 Y82.368 E67.56933
G1 X88.932 Y82.917 E67.59400
G1 X83.917 Y87.932 E67.91303
G1 X84.465 Y87.932 E67.93770
G1 X88.932 Y83.465 E68.22183
G1 X88.932 Y84.014 E68.24651
G1 X85.014 Y87.932 E68.49575
G1 X85.562 Y87.932 E68.52042
G1 X88.932 Y84.562 E68.73478
G1 X88.932 Y85.111 E68.75945
G1 X86.111 Y87.932 E68.93892
G1 X86.659 Y87.932 E68.96359
G1 X88.932 Y85.659 E69.10816
G1 X88.932 Y86.208 E69.13283
G1 X87.208 Y87.932 E69.24252
G1 X87.756 Y87.932 E69.26719
G1 X88.932 Y86.756 E69.34199
G1 X88.932 Y87.304 E69.36666
G1 X88.304 Y87.932 E69.40656
G1 Z0.500 F6000.000
G1 E67.40656 F1200.00000
G92 E0
G1 Z1.000 F6000.000
G1 X81.306 Y70.194 F6000.000
G1 Z0.500 F6000.000
G1 E2.00000 F1200.00000
G1 F2400.000
G1 X88.806 Y70.194 E2.29989
G1 X88.806 Y87.806 E3.00411
G1 X61.194 Y87.806 E4.10818
G1 X61.194 Y70.194 E4.81239
G1 X68.694 Y70.194 E5.11229
G1 X68.694 Y62.194 E5.43217
G1 X81.306 Y62.194 E5.93646
G1 X81.306 Y70.134 E6.25395
G1 X81.823 Y69.677 F6000.000
G1 F2400.000
G1 X89.323 Y69.677 E6.55384
G1 X89.323 Y88.323 E7.29940
G1 X60.677 Y88.323 E8.44483
G1 X60.677 Y69.677 E9.19039
G1 X68.177 Y69.677 E9.49029
G1 X68.177 Y61.677 E9.81017
G1 X81.823 Y61.677 E10.35581
G1 X81.823 Y69.617 E10.67330
G1 X82.280 Y69.220 F6000.000
G1 F2160.000
G1 X89.780 Y69.220 E10.90359
G1 X89.780 Y88.780 E11.50420
G1 X60.220 Y88.780 E12.41188
G1 X60.220 Y69.220 E13.01249
G1 X67.720 Y69.220 E13.24278
G1 X67.720 Y61.220 E13.48843
G1 X82.280 Y61.220 E13.93551
G1 X82.280 Y69.160 E14.17932
G1 X82.419 Y69.595 F6000.000
G1 E12.17932 F1200.00000
G92 E0
G1 Z1.000 F6000.000
G1 X81.209 Y63.132 F6000.000
G1 Z0.500 F6000.000
G1 E2.00000 F1200.00000
G1 F1800.000
G1 X80.368 Y62.291 E2.04812
G1 X79.628 Y62.291 E2.07806
G1 X81.209 Y63.872 E2.16852
G1 X81.209 Y64.612 E2.19846
G1 X78.888 Y62.291 E2.33125
G1 X78.148 Y62.291 E2.36119
G1 X81.209 Y65.352 E2.53632
G1 X81.209 Y66.091 E2.56626
G1 X77.409 Y62.291 E2.78373
G1 X76.669 Y62.291 E2.81366
G1 X81.209 Y66.831 E3.07347
G1 X81.209 Y67.571 E3.10340
G1 X75.929 Y62.291 E3.40554
G1 X75.189 Y62.291 E3.43548
G1 X81.209 Y68.311 E3.77995
G1 X81.209 Y69.051 E3.80989
G1 X74.449 Y62.291 E4.19670
G1 X73.709 Y62.291 E4.22664
G1 X81.209 Y69.791 E4.65578
G1 X81.209 Y70.531 E4.68572
G1 X72.969 Y62.291 E5.15720
G1 X72.229 Y62.291 E5.18714
G1 X88.709 Y78.771 E6.13008
G1 X88.709 Y79.511 E6.16002
G1 X71.489 Y62.291 E7.14530
G1 X70.749 Y62.291 E7.17524
G1 X88.709 Y80.251 E8.20286
G1 X88.709 Y80.991 E8.23280
G1 X70.009 Y62.291 E9.30275
G1 X69.269 Y62.291 E9.33269
G1 X88.709 Y81.731 E10.44498
G1 X88.709 Y82.470 E10.47491
G1 X68.791 Y62.552 E11.61460
G1 X68.791 Y63.292 E11.64453
G1 X88.709 Y83.210 E12.78422
G1 X88.709 Y83.950 E12.81415
G1 X68.791 Y64.032 E13.95384
G1 X68.791 Y64.772 E13.98377
G1 X88.709 Y84.690 E15.12345
G1 X88.709 Y85.430 E15.15339
G1 X68.791 Y65.512 E16.29307
G1 X68.791 Y66.251 E16.32301
G1 X88.709 Y86.170 E17.46269
G1 X88.709 Y86.910 E17.49263
G1 X68.791 Y66.991 E18.63231
G1 X68.791 Y67.731 E18.66225
G1 X88.709 Y87.650 E19.80193
G1 X88.709 Y87.709 E19.80434
G1 X88.029 Y87.709 E19.83187
G1 X68.791 Y68.471 E20.93262
G1 X68.791 Y69.211 E20.96255
G1 X87.289 Y87.709 E22.02097
G1 X86.549 Y87.709 E22.05090
G1 X68.791 Y69.951 E23.06698
G1 X68.791 Y70.291 E23.08072
G1 X68.391 Y70.291 E23.09692
G1 X85.809 Y87.709 E24.09356
G1 X85.069 Y87.709 E24.12349
G1 X67.651 Y70.291 E25.12013
G1 X66.911 Y70.291 E25.15007
G1 X84.329 Y87.709 E26.14671
G1 X83.589 Y87.709 E26.17664
G1 X66.171 Y70.291 E27.17328
G1 X65.431 Y70.291 E27.20322
G1 X82.849 Y87.709 E28.19986
G1 X82.109 Y87.709 E28.22980
G1 X64.691 Y70.291 E29.22644
G1 X63.951 Y70.291 E29.25637
G1 X81.370 Y87.709 E30.25301
G1 X80.630 Y87.709 E30.28295
G1 X63.211 Y70.291 E31.27959
G1 X62.471 Y70.291 E31.30952
G1 X79.890 Y87.709 E32.30616
G1 X79.150 Y87.709 E32.33610
G1 X61.731 Y70.291 E33.33274
G1 X61.291 Y70.291 E33.35057
G1 X61.291 Y70.590 E33.36268
G1 X78.410 Y87.709 E34.34219
G1 X77.670 Y87.709 E34.37213
G1 X61.291 Y71.330 E35.30930
G1 X61.291 Y72.070 E35.33924
G1 X76.930 Y87.709 E36.23408
G1 X76.190 Y87.709 E36.26402
G1 X61.291 Y72.810 E37.11652
G1 X61.291 Y73.550 E37.14646
G1 X75.450 Y87.709 E37.95663
G1 X74.710 Y87.709 E37.98657
G1 X61.291 Y74.290 E38.75440
G1 X61.291 Y75.030 E38.78434
G1 X73.970 Y87.709 E39.50984
G1 X73.231 Y87.709 E39.53977
G1 X61.291 Y75.769 E40.22294
G1 X61.291 Y76.509 E40.25287
G1 X72.491 Y87.709 E40.89370
G1 X71.751 Y87.709 E40.92363
G1 X61.291 Y77.249 E41.52213
G1 X61.291 Y77.989 E41.55206
G1 X71.011 Y87.709 E42.10822
G1 X70.271 Y87.709 E42.13815
G1 X61.291 Y78.729 E42.65197
G1 X61.291 Y79.469 E42.68191
G1 X69.531 Y87.709 E43.15339
G1 X68.791 Y87.709 E43.18333
G1 X61.291 Y80.209 E43.61248
G1 X61.291 Y80.949 E43.64241
G1 X68.051 Y87.709 E44.02923
G1 X67.311 Y87.709 E44.05916
G1 X61.291 Y81.689 E44.40364
G1 X61.291 Y82.429 E44.43358
G1 X66.571 Y87.709 E44.73572
G1 X65.831 Y87.709 E44.76565
G1 X61.291 Y83.169 E45.02546
G1 X61.291 Y83.908 E45.05540
G1 X65.092 Y87.709 E45.27286
G1 X64.352 Y87.709 E45.30280
G1 X61.291 Y84.648 E45.47793
G1 X61.291 Y85.388 E45.50787
G1 X63.612 Y87.709 E45.64067
G1 X62.872 Y87.709 E45.67061
G1 X61.291 Y86.128 E45.76107
G1 X61.291 Y86.868 E45.79100
G1 X62.132 Y87.709 E45.83912
G1 E43.83912 F1200.00000
G92 E0
G1 Z1.000 F6000.000
G1 X88.709 Y78.771 F6000.000
G1 Z0.500 F6000.000
G1 E2.00000 F1200.00000
G1 F1800.000
G1 X88.709 Y78.031 E2.02994
G1 X80.969 Y70.291 E2.47281
G1 X81.709 Y70.291 E2.50275
G1 X88.709 Y77.291 E2.90328
G1 X88.709 Y76.551 E2.93322
G1 X82.449 Y70.291 E3.29142
G1 X83.189 Y70.291 E3.32136
G1 X88.709 Y75.811 E3.63722
G1 X88.709 Y75.071 E3.66716
G1 X83.929 Y70.291 E3.94069
G1 X84.669 Y70.291 E3.97063
G1 X88.709 Y74.331 E4.20182
G1 X88.709 Y73.591 E4.23176
G1 X85.409 Y70.291 E4.42062
G1 X86.148 Y70.291 E4.45055
G1 X88.709 Y72.852 E4.59708
G1 X88.709 Y72.112 E4.62701
G1 X86.888 Y70.291 E4.73120
G1 X87.628 Y70.291 E4.76114
G1 X88.709 Y71.372 E4.82299
G1 Z0.700 F6000.000
G1 E2.82299 F1200.00000
G92 E0
G1 Z1.200 F6000.000
G1 X81.306 Y70.194 F6000.000
G1 Z0.700 F6000.000
G1 E2.00000 F1200.00000
G1 F2400.000
G1 X88.806 Y70.194 E2.29989
G1 X88.806 Y87.806 E3.00411
G1 X61.194 Y87.806 E4.10818
G1 X61.194 Y70.194 E4.81239
G1 X68.694 Y70.194 E5.11229
G1 X68.694 Y62.194 E5.43217
G1 X81.306 Y62.194 E5.93646
G1 X81.306 Y70.134 E6.25395
G1 X81.823 Y69.677 F6000.000
G1 F2400.000
G1 X89.323 Y69.677 E6.55384
G1 X89.323 Y88.323 E7.29940
G1 X60.677 Y88.323 E8.44483
G1 X60.677 Y69.677 E9.19039
G1 X68.177 Y69.677 E9.49029
G1 X68.177 Y61.677 E9.81017
G1 X81.823 Y61.677 E10.35581
G1 X81.823 Y69.617 E10.67330
G1 X82.280 Y69.220 F6000.000
G1 F2160.000
G1 X89.780 Y69.220 E10.90359
G1 X89.780 Y88.780 E11.50420
G1 X60.220 Y88.780 E12.41188
G1 X60.220 Y69.220 E13.01249
G1 X67.720 Y69.220 E13.24278
G1 X67.720 Y61.220 E13.48843
G1 X82.280 Y61.220 E13.93551
G1 X82.280 Y69.160 E14.17932
G1 X82.419 Y69.595 F6000.000
G1 E12.17932 F1200.00000
G92 E0
G1 Z1.200 F6000.000
G1 X68.791 Y63.132 F6000.000
G1 Z0.700 F6000.000
G1 E2.00000 F1200.00000
G1 F1800.000
G1 X69.632 Y62.291 E2.04812
G1 X70.372 Y62.291 E2.07805
G1 X68.791 Y63.872 E2.16852
G1 X68.791 Y64.612 E2.19845
G1 X71.112 Y62.291 E2.33125
G1 X71.852 Y62.291 E2.36119
G1 X68.791 Y65.352 E2.53632
G1 X68.791 Y66.092 E2.56626
G1 X72.592 Y62.291 E2.78373
G1 X73.331 Y62.291 E2.81366
G1 X68.791 Y66.831 E3.07347
G1 X68.791 Y67.571 E3.10340
G1 X74.071 Y62.291 E3.40554
G1 X74.811 Y62.291 E3.43548
G1 X68.791 Y68.311 E3.77996
G1 X68.791 Y69.051 E3.80989
G1 X75.551 Y62.291 E4.19671
G1 X76.291 Y62.291 E4.22664
G1 X68.791 Y69.791 E4.65579
G1 X68.791 Y70.531 E4.68573
G1 X77.031 Y62.291 E5.15721
G1 X77.771 Y62.291 E5.18715
G1 X61.291 Y78.771 E6.13010
G1 X61.291 Y79.511 E6.16003
